findly-builder/apps/searchassist/src/assets/icons/resultTemplate/star.svg

<svg width="8" height="8" viewBox="0 0 8 8" fill="none" xmlns="http://www.w3.org/2000/svg">
<path d="M0.977681 3.0406L2.95733 2.82549L3.76588 0.905944C3.85347 0.698019 4.1481 0.698019 4.23569 0.905944L5.04424 2.82549L7.02234 3.0406C7.23849 3.06411 7.32786 3.33007 7.16977 3.47933L5.68146 4.88452L6.10066 6.94467C6.14503 7.1627 5.9083 7.32893 5.71829 7.21317L4.00078 6.16693L2.28163 7.21324C2.09154 7.32893 1.85485 7.16254 1.89938 6.9445L2.3201 4.88452L0.830328 3.47942C0.672102 3.33019 0.761454 3.06409 0.977681 3.0406Z" fill="#202124"/>
</svg>

<svg width="8" height="8" fill="none" xmlns="http://www.w3.org/2000/svg"><path d="m.978 3.04 1.98-.215.808-1.92a.255.255 0 0 1 .47 0l.808 1.92 1.978.216c.216.023.306.29.148.438L5.68 4.885l.42 2.06a.255.255 0 0 1-.383.268L4.001 6.167 2.28 7.213a.255.255 0 0 1-.382-.269l.421-2.06L.83 3.48a.255.255 0 0 1 .148-.438Z" fill="#202124"/></svg>
